X: 25488
T: Marcus Hernon's Air
R: waltz
M: 3/4
K: Gmajor
|:ef|g4 ag|f4 gf|e3/2 d BA|B4 BA|
G2 g2 g/f/e|f3 d cA|G4 AF|G4:|:GB|
c4 BA|B/d/d- d2 BA|G2 g2 fd|e4 ga|
b4 b/a/g/b/|a3 g ed|e6-|e3 d ef|
g4 ag|f3 d gf|e3 d BA|B4 BA|
G2 g2 g/f/e|f3 d cA|G4 AF|G4:|

